dist/img/product-buy.svg

<svg width="32" height="30" viewBox="0 0 32 30" fill="none" xmlns="http://www.w3.org/2000/svg">
<path d="M11.2502 21.8213C9.09713 21.8213 7.3457 23.5727 7.3457 25.7257C7.3457 27.8788 9.09713 29.6302 11.2502 29.6302C13.4032 29.6302 15.1546 27.8788 15.1546 25.7257C15.1546 23.5727 13.4032 21.8213 11.2502 21.8213ZM11.2502 27.399C10.3276 27.399 9.57682 26.6482 9.57682 25.7257C9.57682 24.8031 10.3276 24.0523 11.2502 24.0523C12.1731 24.0523 12.9235 24.8031 12.9235 25.7257C12.9235 26.6482 12.1728 27.399 11.2502 27.399Z" fill="white"/>
<path d="M23.7463 21.8213C21.5932 21.8213 19.8418 23.5727 19.8418 25.7257C19.8418 27.8788 21.5932 29.6302 23.7463 29.6302C25.8993 29.6302 27.6507 27.8788 27.6507 25.7257C27.6507 23.5727 25.8993 21.8213 23.7463 21.8213ZM23.7463 27.399C22.8237 27.399 22.0729 26.6482 22.0729 25.7257C22.0729 24.8031 22.8237 24.0523 23.7463 24.0523C24.6692 24.0523 25.4196 24.8031 25.4196 25.7257C25.4196 26.6482 24.6688 27.399 23.7463 27.399Z" fill="white"/>
<path d="M30.8847 6.53834C31.228 6.53834 31.5522 6.69638 31.7634 6.96674C31.9746 7.23704 32.0501 7.58958 31.9672 7.92278L29.1783 19.1524C29.0548 19.6495 28.6083 19.999 28.0958 19.999H8.27615C7.75037 19.999 7.29636 19.632 7.18552 19.1181L3.69384 2.8942H1.3597C0.743555 2.8942 0.244141 2.39479 0.244141 1.77864C0.244141 1.1625 0.743555 0.663086 1.3597 0.663086H4.59479C5.12057 0.663086 5.57458 1.03008 5.68542 1.54401L6.76016 6.53797L7.24035 8.76909L9.1771 17.7683H27.2238L29.4587 8.76946H27.53C26.9139 8.76946 26.4145 8.27005 26.4145 7.6539C26.4145 7.03776 26.9139 6.53834 27.53 6.53834H30.8847Z" fill="white"/>
<path d="M17.5 1.8457C16.6715 1.8457 16 2.67367 16 3.69515V11.4628C16 12.4843 16.6715 13.3123 17.5 13.3123C18.3285 13.3123 19 12.4843 19 11.4628V3.69515C19 2.67356 18.3286 1.8457 17.5 1.8457Z" fill="white"/>
<path d="M21.1511 6H13.4452C12.4237 6 11.5957 6.67152 11.5957 7.5C11.5957 8.32848 12.4237 9 13.4452 9H21.1511C22.1726 9 23.0006 8.32848 23.0006 7.5C23.0006 6.67152 22.1727 6 21.1511 6Z" fill="white"/>
</svg>

<svg width="32" height="30" fill="none" xmlns="http://www.w3.org/2000/svg"><path d="M11.25 21.821a3.909 3.909 0 00-3.904 3.905 3.909 3.909 0 003.904 3.904 3.909 3.909 0 003.905-3.904 3.909 3.909 0 00-3.905-3.905zm0 5.578c-.922 0-1.673-.75-1.673-1.673s.75-1.674 1.673-1.674 1.674.751 1.674 1.674c0 .922-.751 1.673-1.674 1.673zm12.496-5.578a3.909 3.909 0 00-3.904 3.905 3.909 3.909 0 003.904 3.904 3.909 3.909 0 003.905-3.904 3.909 3.909 0 00-3.905-3.905zm0 5.578c-.922 0-1.673-.75-1.673-1.673s.75-1.674 1.673-1.674 1.674.751 1.674 1.674c0 .922-.751 1.673-1.674 1.673zm7.139-20.861a1.115 1.115 0 011.082 1.385l-2.789 11.23c-.123.497-.57.846-1.082.846H8.276c-.526 0-.98-.367-1.09-.88L3.694 2.893H1.36a1.116 1.116 0 110-2.23h3.235c.526 0 .98.366 1.09.88L6.76 6.538l.48 2.231 1.937 9h18.047l2.235-9H27.53a1.115 1.115 0 110-2.23h3.355z" fill="#fff"/><path d="M17.5 1.846c-.828 0-1.5.828-1.5 1.85v7.767c0 1.021.672 1.85 1.5 1.85s1.5-.829 1.5-1.85V3.695c0-1.021-.671-1.85-1.5-1.85z" fill="#fff"/><path d="M21.151 6h-7.706c-1.021 0-1.85.672-1.85 1.5s.829 1.5 1.85 1.5h7.706c1.022 0 1.85-.672 1.85-1.5S22.173 6 21.15 6z" fill="#fff"/></svg>
